dock-window.svg

<svg fill="currentColor" viewBox="0 0 24 24"><path d="M18 18v2H4a2 2 0 0 1-2-2V8h2v10M22 6v8a2 2 0 0 1-2 2H8a2 2 0 0 1-2-2V6a2 2 0 0 1 2-2h12a2 2 0 0 1 2 2m-2 0H8v8h12Z"/></svg>

<svg  viewBox="0 0 24 24" fill="currentColor"><path  d="M18 18V20H4A2 2 0 0 1 2 18V8H4V18M22 6V14A2 2 0 0 1 20 16H8A2 2 0 0 1 6 14V6A2 2 0 0 1 8 4H20A2 2 0 0 1 22 6M20 6H8V14H20Z"/></svg>
